X:1
T:Violin Caprice No. 19 in E-Flat Major
T:Violin Caprice No. 19 in E-Flat Major
T:Op. 1, No. 19
T:Niccolò Paganini
C:Niccolò Paganini
L:1/8
Q:1/4=70
M:4/4
K:Eb
V:1 treble nm="Violin" snm="Vln."
V:1
"^Lento"!p! [bb']4 [gg']2 [ee']2 |{/[bb']} [Bb]4 z4 |!pp!"^sul D e G" [Bb]4 [Gg]2 [Ee]2 | %3
{/[Bb]} [B,B]4 !fermata!z4 |: %4
[Q:1/4=150]"^Allegro assai" !fermata!z!p! (.b.b.b{/c'} .b.=a.b)!f!(.[B,G] | %5
 .[G,E])!p!(.b.b.b{/c'} .b.=a.b)!f!(.[B,G] | .[A,F])!p!(.b.b.b{/c'} .b.=a.b)!f!(.[B,F] | %7
 .[A,D])!p!(.b.b.b{/c'} .b.=a.b)!f!(.[B,F] | .[G,E])!p!(.e'.e'.e'{/f'} .e'.d'.e')!f!(.[B,G] | %9
 .[CA])!p!(.e'.e'.e'{/f'} .e'.d'.e')!f!(.[CA] | .[B,G])!p!(.e'.e'.e'{/f'} .e'.d'.e')!f!(.[B,G] | %11
 .[=A,_G])!p!(.e'.e'.e'{/f'} .e'.d'.e')!f!.[A,G] | %12
{/!fermata![B,F]} !fermata!d'2{!fermata!d'} c'>b{/!fermata!g!fermata!=a!fermata!b!fermata!c'} !fermata!b2 !fermata!z2 :| %13
 !fermata!z!p! (.b.b.b{/c'} .b.=a.b)!f!(.[GB] | .[F_A])!p!(.b.b.b{/c'} .b.=a.b)!f!(.[F_A] | %15
 .[EG])!p!(.B.B.B{/c} .B.=A.B)!f!(.[B,G] | .[_A,F])!p!(.B.B.B{/c} .B.=A.B)!f!(.[_A,F] | %17
 .[G,E])!p!(.e'.e'.e'{/f'} .e'.d'.e')!f!(.[B,G] | %18
 .[CA])(.e'{/f'}.e')(.[CA] .[B,G])(.e'{/f'}.e')(.[B,G] | %19
 .[=A,_G])(.e'{/f'}.e')(.[A,G] .[_A,F])(.d'{/e'}.d').[A,F] | %20
 .[G,E].[ge'] .[A,F].c' .[B,G].b .[B,F].d | .[G,E]!p!(.b.b.b{/c'} .b.=a.b)!f!(.[B,F] | %22
 .[G,E])!p!(.e'.e'.e'{/f'} .e'.d'.e')!f!(.[B,F] | .[G,E])!p!(.g'.g'.g'{/a'} .g'.f'.g')!f!(.[B,F] | %24
 .[G,E])!p!(.b'.b'.b'{/c''} .b'.=a'.b')!f!(.[B,F] | .[G,E])!p!(.g.g.g{/a} .g.f.e.d) |: %26
!p!!f![Q:1/4=80]"^Minore""^sul G" (C/G,/E/).D/ (C/D/E/).C/ (D/G,/F/).E/ (D/E/F/).D/ | %27
 (E/D/C/).G/ (E/D/C/).c/ (E/D/C/).e/ (E/D/C/).g/ | %28
 (=B,/G,/).D/.C/ .B,/.F/.E/.D/ (E/D/).C/.B,/ .C/.D/.E/.^F/ | %29
 G/G,/=A,/=B,/ C/D/=E/^F/ G/=A/=B/c/ d/=e/^f/g/ | %30
 (C/G,/).E/.D/ .C/.D/.E/.C/ (D/G,/).F/.E/ .D/.E/.F/.D/ | %31
 (E/D/C/).G/ (E/D/C/).c/ (E/D/C/).e/ (E/D/C/).g/ | %32
 (G,/A,/G,/).C/ (G,/A,/G,/).E/ (G,/A,/G,/).G/ (.G/.F/.E/.D/) | CD/E/ F/G/=A/=B/ c2 z2 :: %34
"^(sul G)" (B,/C/B,/).D/ (B,/C/B,/).F/ (B,/C/B,/).G/ (B,/C/B,/).=A/ | %35
 (B/B,/).C/.D/ .E/.F/.G/.=A/ .B/.c/.d/.e/ .f/.g/.=a/.b/ | %36
 (B,/C/B,/).D/ (B,/C/B,/).F/ (B,/C/B,/).G/ (B,/C/B,/).=A/ | %37
 (B,/B/).=A/.G/ .F/.E/.D/.C/ (B,/_A/).G/.F/ .E/.D/.C/.=B,/ | %38
 (C/G,/).E/.D/ .C/.D/.E/.C/ (D/G,/).F/.E/ .D/.E/.F/.D/ | %39
 (E/D/C/).G/ (E/D/C/).c/ (E/D/C/).e/ (E/D/C/).g/ | %40
 (G,/A,/G,/).C/ (G,/A,/G,/).E/ (G,/A,/G,/).G/ (.G/.F/.E/.D/) |1 CD/E/ F/G/=A/=B/ c2 z2 :|2 %42
 C!p!(.c'.c'.c'{/d'} .c'.=b._b)!f!(.[B,G] || .[G,E])!p!(.b.b.b{/c'} .b.=a.b)!f!(.[B,G] | %44
 .[A,F])!p!(.b.b.b{/c'} .b.=a.b)!f!(.[B,F] | .[A,D])!p!(.b.b.b{/c'} .b.=a.b)!f!(.[B,F] | %46
 .[G,E])!p!(.e'.e'.e'{/f'} .e'.d'.e')!f!(.[B,G] | .[CA])!p!(.e'.e'.e'{/f'} .e'.d'.e')!f!(.[CA] | %48
 .[B,G])!p!(.e'.e'.e'{/f'} .e'.d'.e')!f!(.[B,G] | .[=A,_G])!p!(.e'.e'.e'{/f'} .e'.d'.e')!f!.[A,G] | %50
{/!fermata![B,F]} !fermata!d'2{!fermata!d'} c'>b{/!fermata!=a!fermata!b!fermata!c'} !fermata!b2 !fermata!z2 | %51
 !fermata!z!p! (.b.b.b{/c'} .b.=a.b)!f!(.[GB] | .[F_A])!p!(.b.b.b{/c'} .b.=a.b)!f!(.[F_A] | %53
 .[EG])!p!(.B.B.B{/c} .B.=A.B)!f!(.[B,G] | .[_A,F])!p!(.B.B.B{/c} .B.=A.B)!f!(.[_A,F] | %55
 .[G,E])!p!(.e'.e'.e'{/f'} .e'.d'.e')!f!(.[B,G] | %56
 .[CA])(.e'{/f'}.e')(.[CA] .[B,G])(.e'{/f'}.e')(.[B,G] | %57
 .[=A,_G])(.e'{/f'}.e')(.[A,G] .[_A,F])(.d'{/e'}.d').[A,F] | %58
 .[G,E].[ge'] .[A,F].c' .[B,G].b .[B,F].d | .[G,E]!p!(.b.b.b{/c'} .b.=a.b)!f!(.[B,F] | %60
 .[G,E])!p!(.e'.e'.e'{/f'} .e'.d'.e')!f!(.[B,F] | .[G,E])!p!(.g'.g'.g'{/a'} .g'.f'.g')!f!(.[B,F] | %62
 .[G,E])!p!(.b'.b'.b'{/c''} .b'.=a'.b')!f!(.[B,F] | %63
 .[G,E])!p!!8va(!(.e''.e''.e''{/f''} .e''.d''{/f''}.e''!f!.d'') | %64
 e''!8va)![A,F][EG][A,F] [EG][B,Fd][G,Ee][B,Fd] | [G,Ee]4 !fermata!z4 |] %66

